static/logos/reclaim-wordmark-color.svg

<svg width="100" height="17" viewBox="0 0 100 17" fill="none" xmlns="http://www.w3.org/2000/svg">
<g clip-path="url(#clip0_1_1297)">
<path d="M12.2508 7.42782C14.2662 7.42782 15.9001 5.79399 15.9001 3.77856C15.9001 1.76313 14.2662 0.129303 12.2508 0.129303C10.2354 0.129303 8.60156 1.76313 8.60156 3.77856C8.60156 5.79399 10.2354 7.42782 12.2508 7.42782Z" fill="#171D26"/>
<path d="M7.51193 0.11441H0.210938V7.41542H7.51193V0.11441Z" fill="white"/>
<path d="M12.2538 8.9726L14.1592 12.3432L16.0647 15.7164H12.2538H8.44531L10.3483 12.3432L12.2538 8.9726Z" fill="#FFC550"/>
<path d="M3.86019 15.7686C5.87561 15.7686 7.50945 14.1348 7.50945 12.1193C7.50945 10.1039 5.87561 8.47009 3.86019 8.47009C1.84477 8.47009 0.210938 10.1039 0.210938 12.1193C0.210938 14.1348 1.84477 15.7686 3.86019 15.7686Z" fill="#5263F3"/>
<path d="M27.0064 5.40052V7.73385C26.7066 7.6046 26.3825 7.54097 26.0561 7.54729C24.591 7.54729 23.5188 8.704 23.5188 10.4975V15.7214H21.0312V5.40052H23.5188V6.92788C24.076 5.89554 24.9641 5.23634 26.0984 5.23634C26.4086 5.23395 26.7166 5.28965 27.0064 5.40052Z" fill="#171D26"/>
<path d="M37.4217 11.0149H29.2127C29.3993 12.6641 30.6381 13.7811 32.1854 13.7811C32.7286 13.7908 33.2645 13.6541 33.7369 13.3854C34.209 13.1166 34.6003 12.7257 34.8694 12.2537L36.9739 13.0995C36.148 14.8109 34.352 15.9253 32.2475 15.9253C28.7998 15.9253 26.6953 13.5522 26.6953 10.5597C26.6953 7.56713 28.9665 5.194 32.1854 5.194C35.1704 5.194 37.4267 7.34077 37.4689 10.4776L37.4217 11.0149ZM29.4366 9.19898H34.7401C34.5821 8.63641 34.2398 8.14325 33.7679 7.7986C33.2961 7.45395 32.7222 7.27783 32.1381 7.29848C31.5438 7.28457 30.9605 7.46166 30.4744 7.80373C29.9881 8.14582 29.6244 8.63485 29.4366 9.19898Z" fill="#171D26"/>
<path d="M37.8047 10.5597C37.8047 7.48505 40.2599 5.194 43.3768 5.194C45.6156 5.194 47.546 6.39052 48.3918 8.42783L46.1529 9.35569C45.9335 8.79883 45.549 8.32241 45.051 7.99027C44.5529 7.65815 43.9654 7.48621 43.3669 7.49748C41.5709 7.49748 40.2922 8.77858 40.2922 10.5522C40.2922 12.3258 41.5709 13.6069 43.3669 13.6069C43.9654 13.6182 44.5529 13.4463 45.051 13.1141C45.549 12.782 45.9335 12.3056 46.1529 11.7487L48.3918 12.6791C47.546 14.7214 45.6256 15.9129 43.3768 15.9129C40.2475 15.9253 37.8047 13.6343 37.8047 10.5597Z" fill="#171D26"/>
<path d="M49.125 0.241272H51.6126V15.7189H49.125V0.241272Z" fill="#171D26"/>
<path d="M63.6765 5.40051V15.7189H61.1889V14.4751C60.4029 15.3831 59.2486 15.9179 57.7611 15.9179C54.975 15.9179 52.6641 13.5448 52.6641 10.5523C52.6641 7.55972 54.975 5.18658 57.7611 5.18658C59.2536 5.18658 60.4029 5.7239 61.1889 6.63186V5.38808L63.6765 5.40051ZM61.2611 10.5597C61.2611 9.95566 61.082 9.36514 60.7464 8.86285C60.4108 8.36056 59.934 7.96902 59.3758 7.73775C58.8178 7.50649 58.2036 7.44584 57.6113 7.5635C57.0188 7.68116 56.4745 7.97186 56.0471 8.39882C55.6198 8.82579 55.3287 9.36984 55.2106 9.96223C55.0924 10.5546 55.1526 11.1688 55.3835 11.727C55.6141 12.2852 56.0054 12.7625 56.5073 13.0984C57.0093 13.4344 57.5996 13.6139 58.2039 13.6144C58.6051 13.6161 59.0029 13.5382 59.374 13.3852C59.7452 13.2322 60.0822 13.0072 60.3658 12.7231C60.6494 12.439 60.8738 12.1016 61.0263 11.7303C61.1785 11.3589 61.2559 10.9611 61.2536 10.5597H61.2611Z" fill="#171D26"/>
<path d="M65.1331 1.5199C65.1276 1.2236 65.2104 0.932388 65.3711 0.683368C65.5318 0.434348 65.7629 0.238795 66.0353 0.121621C66.3074 0.00444704 66.6082 -0.0290403 66.8997 0.0254222C67.191 0.0798846 67.4594 0.21983 67.6709 0.427435C67.8823 0.635037 68.0273 0.900903 68.087 1.19115C68.147 1.48139 68.1191 1.78288 68.007 2.05721C67.8948 2.33153 67.7035 2.56627 67.4574 2.73152C67.2114 2.89677 66.9219 2.98503 66.6256 2.98507C66.2343 2.98515 65.8589 2.83167 65.5798 2.55764C65.3007 2.28363 65.1403 1.91098 65.1331 1.5199ZM65.3594 5.4005H67.847V15.7189H65.3594V5.4005Z" fill="#171D26"/>
<path d="M84.3233 9.17663V15.7189H81.8358V9.36319C81.844 9.11864 81.8022 8.87499 81.7129 8.64715C81.6238 8.41931 81.489 8.2121 81.3169 8.03814C81.1447 7.86419 80.939 7.7272 80.7121 7.63553C80.4853 7.54384 80.242 7.49941 79.9975 7.50499C78.9029 7.50499 78.1816 8.37312 78.1816 9.44526V15.7189H75.694V9.36319C75.7024 9.11877 75.6612 8.87516 75.5721 8.64735C75.4833 8.41951 75.3487 8.21225 75.1768 8.03827C75.0049 7.86429 74.7992 7.72725 74.5726 7.63553C74.3457 7.54384 74.1027 7.49941 73.8582 7.50499C72.7437 7.50499 72.0422 8.37312 72.0422 9.44526V15.7189H69.5547V5.40048H72.0422V6.41295C72.3383 6.03849 72.7139 5.73476 73.1422 5.52389C73.5704 5.31304 74.0403 5.20033 74.5174 5.19402C75.099 5.20797 75.6689 5.36143 76.1788 5.64153C76.6888 5.9216 77.1238 6.32011 77.4477 6.80347C77.7833 6.3028 78.2383 5.89349 78.7716 5.61252C79.3049 5.33155 79.8997 5.18772 80.5025 5.19402C82.6791 5.19402 84.3233 6.94777 84.3233 9.17663Z" fill="#171D26"/>
<path d="M95.997 5.40051V15.7189H94.3054V14.2264C93.4174 15.2786 92.0666 15.9179 90.4248 15.9179C87.6587 15.9179 85.2656 13.5249 85.2656 10.5523C85.2656 7.57962 87.6587 5.18658 90.4248 5.18658C92.0766 5.18658 93.4099 5.82589 94.3054 6.87813V5.38559L95.997 5.40051ZM94.3054 10.5597C94.3054 9.83305 94.09 9.12268 93.6863 8.51848C93.2825 7.91427 92.7087 7.44335 92.0375 7.16527C91.3661 6.88718 90.6273 6.81442 89.9146 6.95619C89.2019 7.09795 88.5472 7.44788 88.0333 7.96171C87.5196 8.47554 87.1696 9.13022 87.0278 9.84293C86.886 10.5556 86.9589 11.2944 87.237 11.9657C87.5149 12.6371 87.986 13.2109 88.5902 13.6146C89.1942 14.0184 89.9047 14.2338 90.6313 14.2338C91.1144 14.2361 91.5932 14.1427 92.04 13.9589C92.487 13.775 92.893 13.5045 93.2345 13.1629C93.5761 12.8212 93.8467 12.4153 94.0306 11.9685C94.2144 11.5217 94.3079 11.0429 94.3054 10.5597Z" fill="#171D26"/>
<path d="M97.6799 1.19155C97.6754 0.961877 97.7394 0.736073 97.8637 0.542932C97.9881 0.349787 98.1672 0.198053 98.3782 0.107061C98.5891 0.0160692 98.8222 -0.0100556 99.0481 0.0320161C99.2739 0.0740878 99.4821 0.182449 99.6461 0.343292C99.8103 0.504133 99.9227 0.710173 99.9692 0.935143C100.015 1.16011 99.9941 1.39382 99.9073 1.60649C99.8202 1.81917 99.6722 2.00116 99.4814 2.12927C99.2909 2.25739 99.0662 2.32584 98.8366 2.32588C98.5334 2.32658 98.2421 2.208 98.0257 1.99576C97.8093 1.78351 97.6851 1.49464 97.6799 1.19155ZM97.9909 5.4005H99.6824V15.7189H97.9909V5.4005Z" fill="#171D26"/>
</g>
<defs>
<clipPath id="clip0_1_1297">
<rect width="100" height="16.1692" fill="white"/>
</clipPath>
</defs>
</svg>

<svg xmlns="http://www.w3.org/2000/svg" width="376.471" height="64" fill="none" viewBox="0 0 100 17"><g clip-path="url(#a)"><path fill="#171D26" d="M12.25 7.428a3.65 3.65 0 1 0 0-7.299 3.65 3.65 0 0 0 0 7.299Z"/><path fill="#fff" d="M7.512.114H.21v7.301h7.3v-7.3Z"/><path fill="#FFC550" d="m12.254 8.973 1.905 3.37 1.906 3.373h-7.62l1.903-3.373 1.906-3.37Z"/><path fill="#5263F3" d="M3.86 15.769a3.65 3.65 0 1 0 0-7.299 3.65 3.65 0 0 0 0 7.299Z"/><path fill="#171D26" d="M27.006 5.4v2.334c-.3-.13-.623-.193-.95-.187-1.465 0-2.537 1.157-2.537 2.95v5.224H21.03V5.401h2.488v1.527c.557-1.032 1.445-1.692 2.58-1.692.31-.002.618.054.907.165ZM37.422 11.015h-8.21c.187 1.65 1.426 2.766 2.973 2.766a3.029 3.029 0 0 0 2.684-1.527l2.105.846c-.826 1.71-2.622 2.825-4.726 2.825-3.448 0-5.553-2.373-5.553-5.365 0-2.993 2.271-5.366 5.49-5.366 2.985 0 5.242 2.147 5.284 5.284l-.047.537Zm-7.985-1.816h5.303a2.607 2.607 0 0 0-2.602-1.9 2.778 2.778 0 0 0-2.701 1.9ZM37.805 10.56c0-3.075 2.455-5.366 5.572-5.366 2.239 0 4.169 1.197 5.015 3.234l-2.24.928a2.934 2.934 0 0 0-2.785-1.859c-1.796 0-3.075 1.282-3.075 3.055 0 1.774 1.279 3.055 3.075 3.055a2.935 2.935 0 0 0 2.786-1.858l2.239.93c-.846 2.042-2.766 3.234-5.015 3.234-3.13.012-5.572-2.279-5.572-5.353ZM49.125.241h2.488V15.72h-2.488V.24ZM63.676 5.4V15.72H61.19v-1.244c-.786.908-1.94 1.443-3.428 1.443-2.786 0-5.097-2.373-5.097-5.366 0-2.992 2.311-5.365 5.097-5.365 1.493 0 2.642.537 3.428 1.445V5.388l2.487.013Zm-2.415 5.16a3.054 3.054 0 1 0-3.057 3.054 3.036 3.036 0 0 0 3.05-3.054h.007ZM65.133 1.52a1.492 1.492 0 1 1 2.983-.056 1.492 1.492 0 0 1-2.983.056Zm.226 3.88h2.488V15.72h-2.488V5.4ZM84.323 9.177v6.542h-2.487V9.363a1.797 1.797 0 0 0-1.838-1.858c-1.095 0-1.816.868-1.816 1.94v6.274h-2.488V9.363a1.796 1.796 0 0 0-1.836-1.858c-1.114 0-1.816.868-1.816 1.94v6.274h-2.487V5.4h2.487v1.013a3.21 3.21 0 0 1 2.475-1.219 3.632 3.632 0 0 1 2.93 1.61 3.632 3.632 0 0 1 3.055-1.61c2.177 0 3.821 1.754 3.821 3.983ZM95.997 5.4V15.72h-1.692v-1.493c-.888 1.053-2.238 1.692-3.88 1.692-2.766 0-5.16-2.393-5.16-5.366 0-2.972 2.394-5.365 5.16-5.365 1.652 0 2.985.639 3.88 1.691V5.386l1.692.015Zm-1.692 5.16a3.674 3.674 0 1 0-3.674 3.674 3.657 3.657 0 0 0 3.674-3.674ZM97.68 1.192a1.157 1.157 0 1 1 2.313-.046 1.157 1.157 0 0 1-2.313.046Zm.31 4.208h1.692V15.72h-1.691V5.4Z"/></g><defs><clipPath id="a"><path fill="#fff" d="M0 0h100v16.169H0z"/></clipPath></defs></svg>
